IMG/ICON/envelope-solid.svg

<svg xmlns="http://www.w3.org/2000/svg" viewBox="0 0 512 512"><!--!Font Awesome Free 6.6.0 by @fontawesome - https://fontawesome.com License - https://fontawesome.com/license/free Copyright 2024 Fonticons, Inc.--><path d="M48 64C21.5 64 0 85.5 0 112c0 15.1 7.1 29.3 19.2 38.4L236.8 313.6c11.4 8.5 27 8.5 38.4 0L492.8 150.4c12.1-9.1 19.2-23.3 19.2-38.4c0-26.5-21.5-48-48-48L48 64zM0 176L0 384c0 35.3 28.7 64 64 64l384 0c35.3 0 64-28.7 64-64l0-208L294.4 339.2c-22.8 17.1-54 17.1-76.8 0L0 176z"/></svg>

<svg width="512" height="512" viewBox="0 0 512 512" fill="none" xmlns="http://www.w3.org/2000/svg">
<path d="M48 64C21.5 64 0 85.5 0 112C0 127.1 7.1 141.3 19.2 150.4L236.8 313.6C248.2 322.1 263.8 322.1 275.2 313.6L492.8 150.4C504.9 141.3 512 127.1 512 112C512 85.5 490.5 64 464 64H48ZM0 176V384C0 419.3 28.7 448 64 448H448C483.3 448 512 419.3 512 384V176L294.4 339.2C271.6 356.3 240.4 356.3 217.6 339.2L0 176Z" fill="white"/>
</svg>
